X:256
T:Reel Boule de Neige
C:Joseph Allard
M:C|
L:1/8
Z:<http://tunes.nhcountrydance.com>.
K:G
Bc\
| "G" d2B2 g2>B2 | "C" d2c2 cBAB | "D7" c2A2 d2>A2 | "G" c2B2 BAGB |
  "G" d2B2 g2>d2 | "C" f2e2 edef | "D7" e2c2 a2>f2 |1 "G" g2b2 g2:|2 "G" g2b2 g2z2 |]
K:D
| "D" ABAG F2A2 | fefg f2d2 | "A7" efed c2e2 | "D" a^gab a4 |
  "D" ABAG F2A2 | fefg f2ed | "A7" c2e2 a2c2 |1 "D" e2d2 d2z2 :|2 "D" e2d2 "D7"d2 |]


